flaticon/pins-and-locations/map-22.svg

<svg xmlns="http://www.w3.org/2000/svg" width="32" height="32" viewBox="0 0 24 24">
    <path d="M 20.398438 15.601562 L 20.398438 15.199219 L 20.800781 15.199219 C 21.039062 15.199219 21.199219 15.039062 21.199219 14.800781 C 21.199219 14.558594 21.039062 14.398438 20.800781 14.398438 L 15.199219 14.398438 C 14.960938 14.398438 14.800781 14.558594 14.800781 14.800781 C 14.800781 15.039062 14.960938 15.199219 15.199219 15.199219 L 15.601562 15.199219 L 15.601562 15.601562 C 15.601562 16.492188 16.132812 17.410156 16.9375 17.992188 C 16.132812 18.550781 15.601562 19.476562 15.601562 20.398438 L 15.601562 20.800781 L 15.199219 20.800781 C 14.960938 20.800781 14.800781 20.960938 14.800781 21.199219 C 14.800781 21.441406 14.960938 21.601562 15.199219 21.601562 L 20.800781 21.601562 C 21.039062 21.601562 21.199219 21.441406 21.199219 21.199219 C 21.199219 20.960938 21.039062 20.800781 20.800781 20.800781 L 20.441406 20.800781 L 20.441406 20.398438 C 20.441406 19.5 19.898438 18.574219 19.082031 17.996094 C 19.875 17.433594 20.398438 16.515625 20.398438 15.601562 Z M 16.359375 15.601562 L 16.359375 15.199219 L 19.558594 15.199219 L 19.558594 15.601562 C 19.558594 16.398438 18.960938 17.238281 18.160156 17.601562 L 17.800781 17.601562 C 17 17.238281 16.398438 16.398438 16.359375 15.601562 Z M 19.601562 20.398438 L 19.601562 20.800781 L 16.441406 20.800781 L 16.441406 20.398438 C 16.441406 19.601562 17.039062 18.761719 17.839844 18.398438 L 18.199219 18.398438 C 19 18.761719 19.601562 19.601562 19.601562 20.398438 Z M 19.601562 20.398438"/>
    <path d="M 22.398438 13.917969 L 22.398438 0.398438 C 22.398438 0.160156 22.238281 0 22 0 L 0.398438 0 C 0.160156 0 0 0.160156 0 0.398438 L 0 22 C 0 22.238281 0.160156 22.398438 0.398438 22.398438 L 13.917969 22.398438 C 14.988281 23.394531 16.421875 24 18 24 C 21.320312 24 24 21.320312 24 18 C 24 16.421875 23.394531 14.988281 22.398438 13.917969 Z M 12.003906 18.230469 C 12.003906 18.238281 12.003906 18.25 12.007812 18.257812 C 12.058594 19.511719 12.492188 20.664062 13.195312 21.601562 L 3.921875 21.601562 L 15.238281 10.28125 L 17.011719 12.082031 C 14.164062 12.550781 12 15.015625 12 18 C 12 18.078125 12 18.152344 12.003906 18.230469 Z M 21.601562 10.253906 L 18.398438 7.121094 L 21.601562 3.921875 Z M 8.800781 0.800781 L 18.480469 0.800781 L 8.800781 10.480469 Z M 4.800781 0.800781 L 4.800781 4.800781 L 0.800781 4.800781 L 0.800781 0.800781 Z M 0.800781 8.800781 L 4.800781 8.800781 L 4.800781 14.480469 L 0.800781 18.480469 Z M 0.800781 21.601562 L 0.800781 19.640625 L 5.480469 14.921875 C 5.558594 14.839844 5.601562 14.761719 5.601562 14.640625 L 5.601562 8.398438 C 5.601562 8.160156 5.441406 8 5.199219 8 L 0.800781 8 L 0.800781 5.601562 L 5.199219 5.601562 C 5.441406 5.601562 5.601562 5.441406 5.601562 5.199219 L 5.601562 0.800781 L 8 0.800781 L 8 11.441406 C 8 11.601562 8.078125 11.761719 8.238281 11.800781 C 8.398438 11.878906 8.558594 11.839844 8.679688 11.71875 L 19.640625 0.800781 L 21.601562 0.800781 L 21.601562 2.761719 L 17.519531 6.839844 C 17.441406 6.921875 17.398438 7 17.398438 7.121094 C 17.398438 7.238281 17.441406 7.320312 17.519531 7.398438 L 21.601562 11.359375 L 21.601562 13.195312 C 20.855469 12.636719 19.976562 12.25 19.015625 12.085938 C 18.992188 12.082031 18.96875 12.078125 18.945312 12.074219 C 18.917969 12.070312 18.890625 12.066406 18.859375 12.0625 C 18.636719 12.027344 18.414062 12.007812 18.1875 12.003906 C 18.15625 12.003906 18.125 12 18.097656 12 C 18.078125 12 18.058594 12 18.039062 12 L 15.519531 9.441406 C 15.441406 9.359375 15.359375 9.320312 15.238281 9.320312 C 15.121094 9.320312 15.039062 9.359375 14.960938 9.441406 L 2.800781 21.601562 Z M 18 23.199219 C 16.570312 23.199219 15.277344 22.628906 14.339844 21.699219 C 13.382812 20.734375 12.835938 19.472656 12.800781 18.132812 C 12.800781 18.085938 12.800781 18.042969 12.800781 18 C 12.800781 15.121094 15.121094 12.800781 18 12.800781 C 18.042969 12.800781 18.085938 12.800781 18.132812 12.800781 C 19.472656 12.835938 20.734375 13.382812 21.699219 14.339844 C 22.628906 15.277344 23.199219 16.570312 23.199219 18 C 23.199219 20.878906 20.878906 23.199219 18 23.199219 Z M 18 23.199219"/>
</svg>

<svg xmlns="http://www.w3.org/2000/svg" width="32" height="32" viewBox="0 0 24 24">
    <path d="M20.398 15.602v-.403h.403c.238 0 .398-.16.398-.398 0-.242-.16-.403-.398-.403h-5.602c-.238 0-.398.16-.398.403 0 .238.16.398.398.398h.403v.403c0 .89.53 1.808 1.335 2.39-.804.559-1.335 1.485-1.335 2.406v.403h-.403c-.238 0-.398.16-.398.398 0 .242.16.403.398.403h5.602c.238 0 .398-.16.398-.403 0-.238-.16-.398-.398-.398h-.36v-.403c0-.898-.543-1.824-1.359-2.402.793-.562 1.316-1.48 1.316-2.394zm-4.039 0v-.403h3.2v.403c0 .796-.598 1.636-1.399 2h-.36c-.8-.364-1.402-1.204-1.44-2zm3.243 4.796v.403h-3.16v-.403c0-.796.597-1.636 1.398-2h.36c.8.364 1.402 1.204 1.402 2zm0 0"/>
    <path d="M22.398 13.918V.398C22.398.16 22.238 0 22 0H.398C.16 0 0 .16 0 .398V22c0 .238.16.398.398.398h13.52A5.967 5.967 0 0 0 18 24c3.32 0 6-2.68 6-6a5.967 5.967 0 0 0-1.602-4.082zM12.004 18.23c0 .008 0 .02.004.028a5.958 5.958 0 0 0 1.187 3.344H3.922l11.316-11.32 1.774 1.8a5.99 5.99 0 0 0-5.008 6.148zm9.598-7.976L18.398 7.12l3.204-3.2zM8.8.8h9.68L8.8 10.48zm-4 0v4h-4v-4zm-4 8h4v5.68l-4 4zm0 12.8v-1.96l4.68-4.72a.375.375 0 0 0 .12-.28V8.398C5.602 8.16 5.442 8 5.2 8H.801V5.602h4.398c.242 0 .403-.16.403-.403V.801H8v10.64c0 .16.078.32.238.36.16.078.32.039.442-.082L19.64.8h1.962v1.96L17.52 6.84a.375.375 0 0 0-.122.281c0 .117.043.2.122.277l4.082 3.961v1.836a5.984 5.984 0 0 0-2.586-1.11l-.07-.01a4.736 4.736 0 0 0-.087-.012 4.824 4.824 0 0 0-.672-.06l-.09-.003h-.058l-2.52-2.559a.356.356 0 0 0-.28-.12c-.118 0-.2.038-.278.12L2.8 21.601zM18 23.2c-1.43 0-2.723-.57-3.66-1.5a5.241 5.241 0 0 1-1.54-3.566V18a5.19 5.19 0 0 1 5.2-5.2h.133a5.241 5.241 0 0 1 3.566 1.54c.93.937 1.5 2.23 1.5 3.66A5.19 5.19 0 0 1 18 23.2zm0 0"/>
</svg>
